X: 26
T: Donnybrook Fair
R: jig
Z: 2012 John Chambers <jc@trillian.mit.edu>
B: "100 Essential Irish Session Tunes" 1995 Dave Mallinson, ed.
M: 6/8
L: 1/8
K: G
D |\
"G"GFG "D"AGA | "Em"Bee dBA | "G"BAB "Em"GAB | "Am"AGE "E2"E2D |\
"G"GFG "D"AGA | "Em"Bee dBA | "A7"BAB GAB | "D7"AGF "G"G2 :|
f |\
"Em"gfe "D"fed | "Em"e/f/ge dBA | "Em"Bee dBA "Em"Bee "C"e2f |\
"Em"gfe "D"fed | "Em"e/f/ge dBA | "A7"BAB GAB | "D7"AGF "G"G2 |]
f |\
"Em"gfe "D"fed | "Em"e/f/ge dBA | "Em"Bee dBA "Em"Bee "C"e2f |\
"G"gfg "D"aga | "Em"bge dBA | "A7"BAB GAB | "D7"AGF "G"G2 |]

%%sep 2 1 500
%%sep 1 1 500

